archdroid-icon-theme/Archdroid-Amber/mimetypes/scalable/image-jpeg.svg

<svg fill="#00c853" height="48" viewBox="0 0 48 48" width="48" xmlns="http://www.w3.org/2000/svg"><path d="m10 6c-2.21 0-4 1.79-4 4v28c0 2.21 1.79 4 4 4h28c2.21 0 4-1.79 4-4v-28c0-2.21-1.79-4-4-4zm3.519531 2.939453h1.484375v1.300781h-1.484375zm6.347657 2.794922c.813802 0 1.446777.32373 1.898437.970703.455729.642904.683594 1.491048.683594 2.544922v.128906c0 .960287-.226074 1.734212-.677735 2.324219-.45166.590007-1.079101.886719-1.884765.886719-.374349 0-.707194-.068848-.996094-.203125-.2889-.134278-.536621-.33138-.744141-.591797v3.205078h-1.482422v-9.142578h1.25l.146485.830078c.211588-.309245.466634-.546224.763672-.708984.301107-.162761.648274-.244141 1.042969-.244141zm6.537109 0c.891113 0 1.572917.271322 2.044922.8125.476074.537109.714843 1.258626.714843 2.166016v.873047h-4.121093l-.011719.03125c.024414.524902.17627.95345.457031 1.287109.284831.333659.679199.5 1.179688.5.398763 0 .74056-.048828 1.02539-.146485.284831-.097656.55778-.236816.822266-.419921l.476563.970703c-.24821.219726-.577312.404134-.988282.554687-.41097.150554-.886556.226563-1.427734.226563-.935873 0-1.68278-.305664-2.240234-.916016-.553386-.61442-.830079-1.401042-.830079-2.361328v-.246094c0-.960286.274903-1.754069.824219-2.384765.553386-.634766 1.244141-.951335 2.074219-.947266zm6.292969 0c.394694 0 .740071.086914 1.037109.257813.301107.166829.556152.407226.763672.724609l.146484-.859375h1.232422v6.603516c0 .850423-.262207 1.506835-.787109 1.970703-.524903.463867-1.27002.697265-2.234375.697265-.321452 0-.66862-.047038-1.042969-.140625-.37028-.089518-.706706-.210774-1.007812-.361328l.318359-1.166015c.244141.126139.511719.223795.804687.292968.297038.073242.602702.111328.916016.111328.537109 0 .929525-.115722 1.177734-.347656.24821-.227864.373047-.580566.373047-1.05664v-.677735c-.207519.264486-.45345.465169-.738281.603516-.280762.134277-.604492.203125-.970703.203125-.809733 0-1.444499-.296712-1.904297-.886719s-.689453-1.363932-.689453-2.324219v-.128906c0-1.049805.229655-1.897949.689453-2.544922s1.098145-.970703 1.916016-.970703zm-19.140625.123047h1.482421v6.988281c0 .728353-.187988 1.2889-.566406 1.683594-.378418.398763-.906575.599609-1.582031.599609-.146484 0-.278483-.009114-.396484-.02539-.118002-.016276-.240886-.043457-.371094-.080078l.083984-1.183594c.069173.020345.156087.036621.257813.048828.101725.016276.195801.02539.28125.02539.252278 0 .449381-.088704.591797-.263671.146484-.170899.21875-.438477.21875-.804688zm12.847656 1.068359c-.366211 0-.666341.146485-.902344.439453-.236002.2889-.382487.655925-.439453 1.103516l.011719.03125h2.61914v-.152344c0-.419108-.108561-.760905-.324218-1.02539-.211589-.264486-.533529-.396485-.964844-.396485zm-6.951172.023438c-.309245 0-.571452.066894-.787109.201172-.215658.130208-.389323.312825-.519532.548828v2.986328c.130209.231933.303874.41097.519532.537109.215657.122071.481445.181641.798828.181641.504557 0 .880696-.184408 1.128906-.554688.252279-.374349.378906-.86442.378906-1.470703v-.128906c0-.675456-.128418-1.227051-.384765-1.654297-.252279-.431315-.630209-.646484-1.134766-.646484zm13.623047 0c-.508626 0-.886556.213379-1.134766.640625-.24414.427246-.367187.980631-.367187 1.660156v.128906c0 .606283.119303 1.092774.359375 1.458985.24414.362142.622233.542968 1.130859.542968.317383 0 .583171-.065104.798828-.195312.219727-.134277.396973-.326009.53125-.574219v-2.892578c-.138346-.240072-.317383-.428223-.537109-.5625-.215658-.138346-.476074-.207031-.78125-.207031zm-4.076172 11.050781 9 12h-28l7-9 5 6.009766z" fill="#00c853"/></svg>

<svg fill="#00c853" height="48" version="1.1" viewBox="0 0 48 48" width="48" xmlns="http://www.w3.org/2000/svg"><path d="M10 6C7.79 6 6 7.79 6 10L6 38C6 40.21 7.79 42 10 42L38 42C40.21 42 42 40.21 42 38L42 10C42 7.79 40.21 6 38 6L10 6zM13.519531 8.939453L15.003906 8.939453 15.003906 10.240234 13.519531 10.240234 13.519531 8.939453zM19.867188 11.734375C20.68099 11.734375 21.313965 12.058105 21.765625 12.705078 22.221354 13.347982 22.449219 14.196126 22.449219 15.25L22.449219 15.378906C22.449219 16.339193 22.223145 17.113118 21.771484 17.703125 21.319824 18.293132 20.692383 18.589844 19.886719 18.589844 19.51237 18.589844 19.179525 18.520996 18.890625 18.386719 18.601725 18.252441 18.354004 18.055339 18.146484 17.794922L18.146484 21 16.664062 21 16.664062 11.857422 17.914062 11.857422 18.060547 12.6875C18.272135 12.378255 18.527181 12.141276 18.824219 11.978516 19.125326 11.815755 19.472493 11.734375 19.867188 11.734375zM26.404297 11.734375C27.29541 11.734375 27.977214 12.005697 28.449219 12.546875 28.925293 13.083984 29.164062 13.805501 29.164062 14.712891L29.164062 15.585938 25.042969 15.585938 25.03125 15.617188C25.055664 16.14209 25.20752 16.570638 25.488281 16.904297 25.773112 17.237956 26.16748 17.404297 26.667969 17.404297 27.066732 17.404297 27.408529 17.355469 27.693359 17.257812 27.97819 17.160156 28.251139 17.020996 28.515625 16.837891L28.992188 17.808594C28.743978 18.02832 28.414876 18.212728 28.003906 18.363281 27.592936 18.513835 27.11735 18.589844 26.576172 18.589844 25.640299 18.589844 24.893392 18.28418 24.335938 17.673828 23.782552 17.059408 23.505859 16.272786 23.505859 15.3125L23.505859 15.066406C23.505859 14.10612 23.780762 13.312337 24.330078 12.681641 24.883464 12.046875 25.574219 11.730306 26.404297 11.734375zM32.697266 11.734375C33.09196 11.734375 33.437337 11.821289 33.734375 11.992188 34.035482 12.159017 34.290527 12.399414 34.498047 12.716797L34.644531 11.857422 35.876953 11.857422 35.876953 18.460938C35.876953 19.311361 35.614746 19.967773 35.089844 20.431641 34.564941 20.895508 33.819824 21.128906 32.855469 21.128906 32.534017 21.128906 32.186849 21.081868 31.8125 20.988281 31.44222 20.898763 31.105794 20.777507 30.804688 20.626953L31.123047 19.460938C31.367188 19.587077 31.634766 19.684733 31.927734 19.753906 32.224772 19.827148 32.530436 19.865234 32.84375 19.865234 33.380859 19.865234 33.773275 19.749512 34.021484 19.517578 34.269694 19.289714 34.394531 18.937012 34.394531 18.460938L34.394531 17.783203C34.187012 18.047689 33.941081 18.248372 33.65625 18.386719 33.375488 18.520996 33.051758 18.589844 32.685547 18.589844 31.875814 18.589844 31.241048 18.293132 30.78125 17.703125 30.321452 17.113118 30.091797 16.339193 30.091797 15.378906L30.091797 15.25C30.091797 14.200195 30.321452 13.352051 30.78125 12.705078 31.241048 12.058105 31.879395 11.734375 32.697266 11.734375zM13.556641 11.857422L15.039062 11.857422 15.039062 18.845703C15.039062 19.574056 14.851074 20.134603 14.472656 20.529297 14.094238 20.92806 13.566081 21.128906 12.890625 21.128906 12.744141 21.128906 12.612142 21.119792 12.494141 21.103516 12.376139 21.08724 12.253255 21.060059 12.123047 21.023438L12.207031 19.839844C12.276204 19.860189 12.363118 19.876465 12.464844 19.888672 12.566569 19.904948 12.660645 19.914062 12.746094 19.914062 12.998372 19.914062 13.195475 19.825358 13.337891 19.650391 13.484375 19.479492 13.556641 19.211914 13.556641 18.845703L13.556641 11.857422zM26.404297 12.925781C26.038086 12.925781 25.737956 13.072266 25.501953 13.365234 25.265951 13.654134 25.119466 14.021159 25.0625 14.46875L25.074219 14.5 27.693359 14.5 27.693359 14.347656C27.693359 13.928548 27.584798 13.586751 27.369141 13.322266 27.157552 13.05778 26.835612 12.925781 26.404297 12.925781zM19.453125 12.949219C19.14388 12.949219 18.881673 13.016113 18.666016 13.150391 18.450358 13.280599 18.276693 13.463216 18.146484 13.699219L18.146484 16.685547C18.276693 16.91748 18.450358 17.096517 18.666016 17.222656 18.881673 17.344727 19.147461 17.404297 19.464844 17.404297 19.969401 17.404297 20.34554 17.219889 20.59375 16.849609 20.846029 16.47526 20.972656 15.985189 20.972656 15.378906L20.972656 15.25C20.972656 14.574544 20.844238 14.022949 20.587891 13.595703 20.335612 13.164388 19.957682 12.949219 19.453125 12.949219zM33.076172 12.949219C32.567546 12.949219 32.189616 13.162598 31.941406 13.589844 31.697266 14.01709 31.574219 14.570475 31.574219 15.25L31.574219 15.378906C31.574219 15.985189 31.693522 16.47168 31.933594 16.837891 32.177734 17.200033 32.555827 17.380859 33.064453 17.380859 33.381836 17.380859 33.647624 17.315755 33.863281 17.185547 34.083008 17.05127 34.260254 16.859538 34.394531 16.611328L34.394531 13.71875C34.256185 13.478678 34.077148 13.290527 33.857422 13.15625 33.641764 13.017904 33.381348 12.949219 33.076172 12.949219zM29 24L38 36 10 36 17 27 22 33.009766 29 24z"/></svg>
